X:1
T:Glade jul / Stille Nacht / silent night
T: Franz Gruber / arr. Frederik Kjær Zeuthen
T:Dansk tekst: B.S. Ingemann
%%score 1 2 3
L:1/8
M:6/8
K:Db
V:1 treble nm="Soprano" snm="S."
V:2 treble nm="Mezzosoprano" snm="Mzs."
V:3 treble nm="Alto" snm="A."
V:1
 (A>B)A F3 | (A>B)A F3 | e2 e c2 c | d2 d !breath!A3 | B2 B d>cB | A>BA F3 | B2 B d>cB | %7
w: Gla- * de jul!|Dej- li- ge jul!|Eng- le da- ler|ned i skjul!|Hid de fly- ver med|pa- ra- dis- grønt,|hvor de ser, hvad for|
 (A>B)A F3 | e>ee gec | (d3 f3) | d>AF AGE | D3- D3 |] %12
w: Gud * er kønt,|løn- lig i- blandt os de|går _|Løn- lig i- blandt os de|går. *|
V:2
 z3 (F>G)F | D3 (F>G)F | G2 G A2 G | F2 F !breath!F3 | G2 G G>GE | F>GF D3 | G2 G G>GE | %7
w: Gla- * de|jul! Dej- li- ge|Eng- le da- ler|ned i skjul!|Hid de fly- ver med|pa- ra- dis- grønt,|hvor de ser, hvad for|
 (F>G)F D3 | GGG AAA | A3- A3 | F>FD CCC | D3- D3 |] %12
w: Gud * er kønt,|løn- lig i- blandt os de|går _|Løn- lig i- blandt os de|går. *|
V:3
 (F>G)F D3 | (F>G)F D3 | (A,C)E (GF)E | D2 D (D2 !breath!_C) | B,2 D B,>B,C | D3 F>GF | %6
w: Gla- * de jul!|Dej- li- ge jul!|Eng- * le da- * ler|ned i skjul _|Hid de fly- ver med|grønt, pa- ra- dis,|
 D2 D B,>B,C | D2 D D3 | A,CE CEG | F3 DCB, | A,3 A,3 | D3- D3 |] %12
w: hvor de ser, hvad for|Gud er kønt,|løn- lig i- blandt os de|går, løn- lig i-|blandt os|går. *|

